www/assets/icons/feed.svg

<svg xmlns="http://www.w3.org/2000/svg" width="24" height="24" viewBox="0 0 24 24" fill='currentColor'><path d="M16 3H5c-1.1 0-2 .9-2 2v14c0 1.1.9 2 2 2h14c1.1 0 2-.9 2-2V8zM7 7h5v2H7zm10 10H7v-2h10zm0-4H7v-2h10zm-2-4V5l4 4z"/></svg>

<svg width="24" height="24" viewBox="0 0 24 24" xmlns="http://www.w3.org/2000/svg" fill='currentColor'><path d="M16 3H5C3.9 3 3 3.9 3 5V19C3 20.1 3.9 21 5 21H19C20.1 21 21 20.1 21 19V8L16 3ZM7 7H12V9H7V7ZM17 17H7V15H17V17ZM17 13H7V11H17V13ZM15 9V5L19 9H15Z"/></svg>
